pp/airplane.svg

<svg viewBox="0 0 20 20" fill="none" xmlns="http://www.w3.org/2000/svg" height="1em" width="1em">
  <path fill-rule="evenodd" clip-rule="evenodd" d="M10.7549 12.9963L12.6137 11.2918L14.0858 16.5607C14.2873 17.2817 15.1804 17.5338 15.7291 17.0246C17.3078 15.5597 18.1699 14.2058 18.2479 12.8948C18.3038 11.9539 17.8659 10.1553 16.9294 7.33446L17.1593 7.12366C19.4079 4.87645 20.0577 2.91564 18.5923 1.45023C17.1271 -0.0150314 15.1661 0.634362 12.9482 2.85086L12.7079 3.11245C9.88669 2.17579 8.08782 1.73782 7.14683 1.79379C5.83588 1.87176 4.48194 2.73388 3.01704 4.31253C2.50783 4.86128 2.75997 5.75441 3.48097 5.95585L8.75056 7.42815L7.0465 9.28692C5.32628 9.0514 4.24908 8.94907 3.72656 8.98019C2.78982 9.03596 1.86795 9.623 0.89294 10.6737C0.38371 11.2225 0.635886 12.1156 1.35692 12.317L6.01025 13.6169L6.42478 14.0314L7.72462 18.6847C7.92603 19.4058 8.81919 19.658 9.36796 19.1487C10.4187 18.1737 11.0057 17.2518 11.0615 16.3151C11.0926 15.7927 10.9903 14.7159 10.7549 12.9963ZM9.01615 11.8772C8.77322 12.0999 8.65566 12.4281 8.70187 12.7544C8.94065 14.4405 9.06247 15.5704 9.06757 16.0585L8.28047 13.2407C8.23421 13.0751 8.14604 12.9242 8.02445 12.8027L7.239 12.0172C7.11742 11.8956 6.96654 11.8075 6.80093 11.7612L3.98319 10.9741C4.47143 10.9792 5.60166 11.1011 7.28845 11.34C7.61484 11.3862 7.94304 11.2686 8.16579 11.0256L11.3255 7.57908C11.8296 7.02922 11.5759 6.14093 10.8574 5.9402L5.73365 4.50864C6.33268 4.04943 6.84845 3.81507 7.26558 3.79026C7.90809 3.75204 9.78145 4.2286 12.6835 5.21408C13.059 5.34156 13.4743 5.2352 13.7422 4.94295L14.3922 4.23396C15.8992 2.7292 16.7584 2.44469 17.1781 2.86445C17.5977 3.28405 17.3131 4.14277 15.7764 5.67951L15.0987 6.29966C14.8065 6.5676 14.7002 6.98285 14.8276 7.35825C15.8131 10.2603 16.2896 12.1336 16.2514 12.7761C16.2266 13.1932 15.9922 13.709 15.533 14.308L14.1016 9.18478C13.9009 8.46628 13.0125 8.21263 12.4627 8.71682L9.01615 11.8772Z" fill="currentColor"/>
</svg>

<svg viewBox="0 0 20 20" fill="none" xmlns="http://www.w3.org/2000/svg" height="1em" width="1em">
  <path fill-rule="evenodd" clip-rule="evenodd" d="m10.755 12.996 1.859-1.704 1.472 5.269a1 1 0 0 0 1.643.464c1.579-1.465 2.44-2.82 2.519-4.13.056-.941-.382-2.74-1.319-5.56l.23-.211c2.249-2.248 2.899-4.208 1.433-5.674-1.465-1.465-3.426-.816-5.644 1.4l-.24.262c-2.821-.936-4.62-1.374-5.561-1.318-1.311.078-2.665.94-4.13 2.519a1 1 0 0 0 .464 1.643l5.27 1.472-1.704 1.859c-1.72-.236-2.798-.338-3.32-.307-.937.056-1.859.643-2.834 1.694a1 1 0 0 0 .464 1.643l4.653 1.3.415.414 1.3 4.654a1 1 0 0 0 1.643.464c1.05-.975 1.638-1.897 1.694-2.834.03-.522-.072-1.6-.307-3.319Zm-1.739-1.119a1 1 0 0 0-.314.877c.239 1.687.36 2.816.366 3.304l-.788-2.817a1 1 0 0 0-.256-.438l-.785-.786a1 1 0 0 0-.438-.256l-2.818-.787c.488.005 1.619.127 3.305.366a1 1 0 0 0 .878-.314l3.16-3.447a1 1 0 0 0-.469-1.639L5.734 4.51c.599-.46 1.114-.694 1.532-.719.642-.038 2.515.439 5.418 1.424a1 1 0 0 0 1.058-.271l.65-.709c1.507-1.505 2.366-1.79 2.786-1.37.42.42.135 1.279-1.402 2.816l-.677.62a1 1 0 0 0-.271 1.058c.985 2.902 1.462 4.776 1.423 5.418-.024.417-.259.933-.718 1.532l-1.431-5.123a1 1 0 0 0-1.64-.468l-3.446 3.16Z" fill="currentColor"/>
</svg>
